packages/assets/static/images/icons/camera.svg

<svg width="24" height="24" viewBox="0 0 24 24" xmlns="http://www.w3.org/2000/svg">
<path d="M19.4999 5.62549H16.9011L15.6233 3.70924C15.5549 3.60663 15.4621 3.52249 15.3534 3.46427C15.2447 3.40606 15.1232 3.37556 14.9999 3.37549H8.99988C8.87653 3.37556 8.7551 3.40606 8.64636 3.46427C8.53761 3.52249 8.4449 3.60663 8.37644 3.70924L7.09769 5.62549H4.49988C3.90314 5.62549 3.33084 5.86254 2.90889 6.2845C2.48693 6.70645 2.24988 7.27875 2.24988 7.87549V18.3755C2.24988 18.9722 2.48693 19.5445 2.90889 19.9665C3.33084 20.3884 3.90314 20.6255 4.49988 20.6255H19.4999C20.0966 20.6255 20.6689 20.3884 21.0909 19.9665C21.5128 19.5445 21.7499 18.9722 21.7499 18.3755V7.87549C21.7499 7.27875 21.5128 6.70645 21.0909 6.2845C20.6689 5.86254 20.0966 5.62549 19.4999 5.62549ZM20.2499 18.3755C20.2499 18.5744 20.1709 18.7652 20.0302 18.9058C19.8896 19.0465 19.6988 19.1255 19.4999 19.1255H4.49988C4.30097 19.1255 4.1102 19.0465 3.96955 18.9058C3.8289 18.7652 3.74988 18.5744 3.74988 18.3755V7.87549C3.74988 7.67658 3.8289 7.48581 3.96955 7.34516C4.1102 7.20451 4.30097 7.12549 4.49988 7.12549H7.49988C7.62339 7.12557 7.745 7.09515 7.85392 7.03692C7.96285 6.9787 8.05571 6.89448 8.12425 6.79174L9.40113 4.87549H14.5977L15.8755 6.79174C15.944 6.89448 16.0369 6.9787 16.1458 7.03692C16.2548 7.09515 16.3764 7.12557 16.4999 7.12549H19.4999C19.6988 7.12549 19.8896 7.20451 20.0302 7.34516C20.1709 7.48581 20.2499 7.67658 20.2499 7.87549V18.3755ZM11.9999 8.62549C11.184 8.62549 10.3865 8.86742 9.70815 9.32068C9.0298 9.77394 8.50109 10.4182 8.18888 11.1719C7.87666 11.9257 7.79497 12.7551 7.95414 13.5552C8.1133 14.3554 8.50617 15.0904 9.08306 15.6673C9.65995 16.2442 10.395 16.6371 11.1951 16.7962C11.9953 16.9554 12.8247 16.8737 13.5784 16.5615C14.3322 16.2493 14.9764 15.7206 15.4297 15.0422C15.8829 14.3639 16.1249 13.5663 16.1249 12.7505C16.1236 11.6569 15.6886 10.6084 14.9153 9.83504C14.142 9.06172 13.0935 8.62673 11.9999 8.62549ZM11.9999 15.3755C11.4807 15.3755 10.9732 15.2215 10.5415 14.9331C10.1098 14.6447 9.77337 14.2347 9.57469 13.755C9.37601 13.2754 9.32403 12.7476 9.42532 12.2384C9.5266 11.7292 9.77661 11.2614 10.1437 10.8943C10.5108 10.5272 10.9786 10.2772 11.4878 10.1759C11.997 10.0746 12.5248 10.1266 13.0044 10.3253C13.4841 10.524 13.894 10.8604 14.1825 11.2921C14.4709 11.7238 14.6249 12.2313 14.6249 12.7505C14.6249 13.4467 14.3483 14.1144 13.856 14.6066C13.3638 15.0989 12.6961 15.3755 11.9999 15.3755Z"/>
</svg>

<svg viewBox="0 0 24 24" xmlns="http://www.w3.org/2000/svg" aria-hidden="true" fill="currentColor"><path d="M19.5 5.625h-2.6L15.623 3.71A.75.75 0 0 0 15 3.375H9a.75.75 0 0 0-.624.334L7.098 5.625H4.5a2.25 2.25 0 0 0-2.25 2.25v10.5a2.25 2.25 0 0 0 2.25 2.25h15a2.25 2.25 0 0 0 2.25-2.25v-10.5a2.25 2.25 0 0 0-2.25-2.25m.75 12.75a.75.75 0 0 1-.75.75h-15a.75.75 0 0 1-.75-.75v-10.5a.75.75 0 0 1 .75-.75h3a.75.75 0 0 0 .624-.333l1.277-1.917h5.197l1.277 1.917a.75.75 0 0 0 .625.333h3a.75.75 0 0 1 .75.75zM12 8.625a4.125 4.125 0 1 0 0 8.25 4.125 4.125 0 0 0 0-8.25m0 6.75a2.625 2.625 0 1 1 0-5.25 2.625 2.625 0 0 1 0 5.25"/></svg>
